!!!SOCIAL_FUNCTION:	songs of the woman's dance
!!!PDT:	1922
!!!OTL: No_36_Woman's_Dance_Song_(a).krn
!!!REG: Southwest
!!!LANG: Non-Tone
!!!LING_GROUP: Uto-Aztecan
**kern	**kern
*staff2	*staff1
=1-	=1-
*clefF4	*clefG2
*k[b-e-]	*k[b-e-]
*M2/4	*M2/4
12GG^/	16b-\LK
.	8.b-\J
12r	.
12GG/	.
12GG^/	4b-\
12r	.
12GG/	.
=2||	=2||
*M3/4	*M3/4
12GG^/	16g/LL
.	16f/
12r	.
.	16f/
12GG/	.
.	16e-/JJ
12GG^/	8e-/L
12r	.
.	8e-/J
12GG/	.
12GG^/	8e-/L
12r	.
.	8e-/J
12GG/	.
=3||	=3||
*M2/4	*M2/4
2r	4f/
.	8.f/L
.	16e-/Jk
=4||	=4||
*M3/4	*M3/4
2.r	16f/LL
.	16e-/
.	16e-/
.	16c/JJ
.	8B-/L
.	8B-/J
.	8B-/L
.	8B-/J
=5||	=5||
*M2/4	*M2/4
2r	8d/L
.	16d/L
.	16c/JJ
.	8d/L
.	8c/J
=6	=6
2r	16d/LL
.	16c/
.	16c/
.	16B-/JJ
.	8B-/L
.	8B-/J
*	*clefF4
=7	=7
2r	16c\LL
.	16B-\J
.	8B-\J
.	8B-\L
.	8B-\J
=8	=8
2r	16c\LL
.	16B-\J
.	8B-\J
.	8B-\L
.	8B-\J
=9	=9
2r	2B-\
=10||	=10||
*M3/4	*M3/4
2.r	4f\
.	4f\
.	8.f\L
.	16e-\Jk
=11	=11
2.r	16f\LL
.	16e-\
.	16e-\
.	16c\JJ
.	8B-\L
.	8B-\J
.	8B-\L
.	8B-\J
=12||	=12||
*M2/4	*M2/4
2r	8d\L
.	16d\L
.	16c\JJ
.	16d\LL
.	16c\
.	16c\
.	16B-\JJ
=13	=13
2r	16c\LL
.	16B-\J
.	8B-\J
.	8B-\L
.	8B-\J
=14	=14
2r	16c\LL
.	16B-\J
.	8B-\J
.	8B-\L
.	8B-\J
=15	=15
2r	16c\LL
.	16B-\J
.	8B-\J
.	8B-\L
.	8B-\J
=16	=16
2r	2B-\
==	==
*-	*-
